images_elementary_svg/cmd/32/resetattributes.svg

<?xml version="1.0" encoding="UTF-8" standalone="no"?>
<svg
   xmlns:dc="http://purl.org/dc/elements/1.1/"
   xmlns:cc="http://creativecommons.org/ns#"
   xmlns:rdf="http://www.w3.org/1999/02/22-rdf-syntax-ns#"
   xmlns:svg="http://www.w3.org/2000/svg"
   xmlns="http://www.w3.org/2000/svg"
   xmlns:xlink="http://www.w3.org/1999/xlink"
   xmlns:sodipodi="http://sodipodi.sourceforge.net/DTD/sodipodi-0.dtd"
   xmlns:inkscape="http://www.inkscape.org/namespaces/inkscape"
   height="32"
   width="32"
   version="1.1"
   id="svg53"
   sodipodi:docname="resetattributes.svg"
   inkscape:version="0.92.3 (2405546, 2018-03-11)"
   inkscape:export-filename="/home/rizmut/Dokumen/Rizmut/Github/libreoffice-style-elementary/images_elementary/cmd/32/resetattributes.png"
   inkscape:export-xdpi="96"
   inkscape:export-ydpi="96">
  <metadata
     id="metadata59">
    <rdf:RDF>
      <cc:Work
         rdf:about="">
        <dc:format>image/svg+xml</dc:format>
        <dc:type
           rdf:resource="http://purl.org/dc/dcmitype/StillImage" />
        <dc:title />
      </cc:Work>
    </rdf:RDF>
  </metadata>
  <defs
     id="defs57">
    <radialGradient
       xlink:href="#linearGradient12733"
       id="radialGradient12748"
       gradientUnits="userSpaceOnUse"
       gradientTransform="matrix(0.8794595,-0.11013256,0.06311856,0.75017698,-1091.8461,-829.58821)"
       cx="1162.077"
       cy="1294.5182"
       fx="1162.077"
       fy="1294.5182"
       r="11.9021" />
    <linearGradient
       id="linearGradient12733">
      <stop
         style="stop-color:#000000;stop-opacity:1;"
         offset="0"
         id="stop12735" />
      <stop
         style="stop-color:#000000;stop-opacity:0;"
         offset="1"
         id="stop12737" />
    </linearGradient>
    <linearGradient
       xlink:href="#linearGradient1125"
       id="linearGradient1127"
       x1="14.019018"
       y1="6.002409"
       x2="14.019018"
       y2="18.964161"
       gradientUnits="userSpaceOnUse"
       gradientTransform="translate(-0.50426042,1.3510986)" />
    <linearGradient
       id="linearGradient1125">
      <stop
         style="stop-color:#fe9ab8;stop-opacity:1"
         offset="0"
         id="stop1121" />
      <stop
         style="stop-color:#f4679d;stop-opacity:1"
         offset="1"
         id="stop1123" />
    </linearGradient>
    <linearGradient
       xlink:href="#linearGradient964"
       id="linearGradient1105"
       x1="13"
       y1="7"
       x2="13"
       y2="14"
       gradientUnits="userSpaceOnUse"
       gradientTransform="matrix(0.93893529,0,0,0.93893529,0.60408437,2.1070196)" />
    <linearGradient
       id="linearGradient964">
      <stop
         id="stop956"
         style="stop-color:#ffffff;stop-opacity:1"
         offset="0" />
      <stop
         id="stop958"
         style="stop-color:#ffffff;stop-opacity:0.23529412"
         offset="0" />
      <stop
         id="stop960"
         style="stop-color:#ffffff;stop-opacity:0.15686275"
         offset="1" />
      <stop
         id="stop962"
         style="stop-color:#ffffff;stop-opacity:0.39215687"
         offset="1" />
    </linearGradient>
    <linearGradient
       id="linearGradient2867-449-88-871-390-598-476-591-434-148-57-177-641-289-620-227-114-444-680-744-4-1-5">
      <stop
         id="stop5430-5-0-9"
         style="stop-color:#737373;stop-opacity:1"
         offset="0" />
      <stop
         id="stop5432-2-0-0"
         style="stop-color:#636363;stop-opacity:1"
         offset="0.26238" />
      <stop
         id="stop5434-9-6-8"
         style="stop-color:#4b4b4b;stop-opacity:1"
         offset="0.704952" />
      <stop
         id="stop5436-2-7-0"
         style="stop-color:#3f3f3f;stop-opacity:1"
         offset="1" />
    </linearGradient>
    <radialGradient
       inkscape:collect="always"
       xlink:href="#linearGradient2867-449-88-871-390-598-476-591-434-148-57-177-641-289-620-227-114-444-680-744-4-1-5"
       id="radialGradient1945"
       cx="13.929861"
       cy="-0.31844223"
       fx="13.929861"
       fy="-0.31844223"
       r="9.0361776"
       gradientTransform="matrix(-2.2942257,-0.02266858,0.02529158,-2.559695,45.89616,-1.2833619)"
       gradientUnits="userSpaceOnUse" />
  </defs>
  <sodipodi:namedview
     pagecolor="#ffffff"
     bordercolor="#666666"
     borderopacity="1"
     objecttolerance="10"
     gridtolerance="10"
     guidetolerance="10"
     inkscape:pageopacity="0"
     inkscape:pageshadow="2"
     inkscape:window-width="1316"
     inkscape:window-height="732"
     id="namedview55"
     showgrid="true"
     inkscape:snap-global="false"
     inkscape:zoom="5.6568543"
     inkscape:cx="-25.120847"
     inkscape:cy="17.959991"
     inkscape:window-x="50"
     inkscape:window-y="0"
     inkscape:window-maximized="1"
     inkscape:current-layer="svg53">
    <inkscape:grid
       type="xygrid"
       id="grid912" />
  </sodipodi:namedview>
  <linearGradient
     id="a">
    <stop
       offset="0"
       id="stop2" />
    <stop
       offset="1"
       stop-opacity="0"
       id="stop4" />
  </linearGradient>
  <linearGradient
     id="b">
    <stop
       offset="0"
       stop-color="#fff"
       id="stop7" />
    <stop
       offset="1"
       stop-color="#fff"
       stop-opacity="0"
       id="stop9" />
  </linearGradient>
  <radialGradient
     id="c"
     cx="22.571428"
     cy="30.857143"
     gradientTransform="matrix(0.8169656,0,0,0.1566989,-6.143301,14.385012)"
     gradientUnits="userSpaceOnUse"
     r="15.571428"
     xlink:href="#a" />
  <linearGradient
     id="d"
     gradientTransform="matrix(0.498259,0,0,0.4886,0.43611131,-1.9430298)"
     gradientUnits="userSpaceOnUse"
     x1="23.30562"
     x2="14.388516"
     y1="24.843527"
     y2="9.5902243">
    <stop
       offset="0"
       stop-color="#1f1f1f"
       id="stop13" />
    <stop
       offset="1"
       stop-color="#5c5c5c"
       id="stop15" />
  </linearGradient>
  <linearGradient
     id="e"
     gradientTransform="matrix(0.57894734,0,0,0.55555556,34.074641,10.496731)"
     gradientUnits="userSpaceOnUse"
     x1="11.192374"
     x2="11.192374"
     y1="-0.74098802"
     y2="30.298229">
    <stop
       offset="0"
       stop-color="#f8b17e"
       id="stop18" />
    <stop
       offset=".31209752"
       stop-color="#e35d4f"
       id="stop20" />
    <stop
       offset=".57054454"
       stop-color="#c6262e"
       id="stop22" />
    <stop
       offset="1"
       stop-color="#690b54"
       id="stop24" />
  </linearGradient>
  <linearGradient
     id="f"
     gradientUnits="userSpaceOnUse"
     x1="41.225124"
     x2="41.225124"
     y1="23.238064"
     y2="7.3900399">
    <stop
       offset="0"
       stop-color="#791235"
       id="stop27" />
    <stop
       offset="1"
       stop-color="#dd3b27"
       id="stop29" />
  </linearGradient>
  <linearGradient
     id="g"
     gradientTransform="matrix(0.3077295,-0.29497944,0.3077295,0.29497944,25.944842,17.144019)"
     gradientUnits="userSpaceOnUse"
     x1="36.010902"
     x2="16.331276"
     xlink:href="#b"
     y1="13.022708"
     y2="32.702335" />
  <linearGradient
     id="h"
     gradientTransform="matrix(0.3077295,-0.29497944,0.3077295,0.29497944,25.634631,17.292858)"
     gradientUnits="userSpaceOnUse"
     x1="28.449389"
     x2="16.331276"
     xlink:href="#b"
     y1="20.584223"
     y2="32.702335" />
  <radialGradient
     id="i"
     cx="11.03125"
     cy="17.125"
     gradientTransform="matrix(0.63623879,0,0,0.14315373,8.98149,18.449012)"
     gradientUnits="userSpaceOnUse"
     r="9.84375"
     xlink:href="#a" />
  <g
     transform="matrix(1.1422019,0,0,1.1422019,-0.20775226,2.012388)"
     id="g39">
    <ellipse
       cx="12.296779"
       cy="19.220293"
       rx="12.72132"
       ry="2.440027"
       id="ellipse35"
       style="opacity:0.2;fill:url(#c)" />
    <path
       d="M 15.274068,14.851297 H 10.086072 L 7.9341024,18.84436 H 3.2520873 L 12.943178,0.81852751 h 4.804018 L 20.448978,18.795305 h -4.425161 z m -3.992446,-1.995775 h 4.520483 L 15.114087,4.8875222 10.928069,12.855522"
       id="path37"
       inkscape:connector-curvature="0"
       style="opacity:1;fill:url(#radialGradient1945);stroke:#000000;stroke-width:0.87550193;stroke-linecap:round;stroke-linejoin:round;stroke-miterlimit:4;stroke-dasharray:none;fill-opacity:1;stroke-opacity:0.51867223" />
    <path
       style="opacity:0.2;fill:#ffffff;fill-opacity:1;stroke:none;stroke-width:0.99999994;stroke-linecap:round;stroke-linejoin:round;stroke-miterlimit:4;stroke-dasharray:none;stroke-opacity:0.51867221"
       d="M 14.576172 2.9472656 L 12.851562 6.15625 L 14.095703 4.0957031 L 20.234375 4.0957031 L 20.0625 2.9472656 L 14.576172 2.9472656 z M 12.974609 15.363281 L 11.507812 17.845703 L 11.962891 17.845703 L 17.763672 17.845703 L 17.652344 16.695312 L 12.677734 16.695312 L 12.273438 16.695312 L 12.974609 15.363281 z M 10.427734 20.125 L 8.3613281 23.537109 L 8.8554688 23.537109 L 10.693359 20.125 L 10.427734 20.125 z "
       transform="matrix(0.87550196,0,0,0.87550196,0.18188751,-1.7618496)"
       id="path1947" />
  </g>
  <g
     id="g910"
     transform="matrix(0.77463474,0,0,0.77463474,13.009807,13.34396)">
    <path
       id="path12731"
       d="M 12.586085,-0.22063309 4.6961748,15.055402 l -1.9613,5.825689 2.7287,0.624192 12.1963902,0.208063 1.9613,-1.768493 3.8372,-8.946548 1.409211,-9.242381 z"
       style="opacity:1;fill:url(#radialGradient12748);fill-opacity:1;fill-rule:evenodd;stroke:none;stroke-width:0.99325329px;stroke-linecap:butt;stroke-linejoin:miter;stroke-opacity:1"
       inkscape:connector-curvature="0"
       sodipodi:nodetypes="ccccccccc" />
    <path
       id="path12152"
       d="m 3.207949,20.856206 12.40939,0 4.3835,-7.714837 L 21.75125,2.4084059 20.60275,1.2414134 11.09546,1.3035664 9.5690595,2.4221189 3.244649,16.15716 Z"
       style="opacity:1;fill:url(#linearGradient1127);fill-opacity:1;fill-rule:evenodd;stroke:#e41b79;stroke-width:1.29093099;stroke-linecap:butt;stroke-linejoin:round;stroke-miterlimit:4;stroke-dasharray:none;stroke-opacity:0.5"
       inkscape:connector-curvature="0"
       sodipodi:nodetypes="ccccccccc" />
    <path
       id="path12154"
       d="m 5.2376568,15.714294 9.8822722,0.04168 5.445084,-12.0806994 -0.367875,-0.7324323 -8.888317,0 -6.0206495,12.8274017 z"
       style="opacity:0.5;fill:#ffffff;fill-opacity:0.5;fill-rule:evenodd;stroke:url(#linearGradient1105);stroke-width:1.29093099;stroke-linecap:butt;stroke-linejoin:round;stroke-miterlimit:4;stroke-dasharray:none;stroke-opacity:1"
       inkscape:connector-curvature="0"
       sodipodi:nodetypes="ccccccc" />
    <path
       id="path12165"
       d="m 4.5101001,16.611124 v 2.990634 l 10.5985909,0"
       style="opacity:0.2;fill:none;fill-rule:evenodd;stroke:#ffffff;stroke-width:1.29093099;stroke-linecap:round;stroke-linejoin:round;stroke-miterlimit:4;stroke-dasharray:none;stroke-opacity:1"
       inkscape:connector-curvature="0"
       sodipodi:nodetypes="ccc" />
  </g>
</svg>

<?xml version="1.0" encoding="UTF-8" standalone="no"?>
<svg xmlns:rdf="http://www.w3.org/1999/02/22-rdf-syntax-ns#" xmlns="http://www.w3.org/2000/svg" height="32" width="32" version="1.1" xmlns:cc="http://creativecommons.org/ns#" xmlns:xlink="http://www.w3.org/1999/xlink" xmlns:dc="http://purl.org/dc/elements/1.1/">
 <metadata>
  <rdf:RDF>
   <cc:Work rdf:about="">
    <dc:format>image/svg+xml</dc:format>
    <dc:type rdf:resource="http://purl.org/dc/dcmitype/StillImage"/>
    <dc:title/>
   </cc:Work>
  </rdf:RDF>
 </metadata>
 <defs>
  <radialGradient id="radialGradient12748" gradientUnits="userSpaceOnUse" cy="1294.5" cx="1162.1" gradientTransform="matrix(.87946 -.11013 .063119 .75018 -1091.8 -829.59)" r="11.902">
   <stop offset="0"/>
   <stop stop-opacity="0" offset="1"/>
  </radialGradient>
  <linearGradient id="linearGradient1127" y2="18.964" gradientUnits="userSpaceOnUse" x2="14.019" gradientTransform="translate(-.50426 1.3511)" y1="6.0024" x1="14.019">
   <stop stop-color="#fe9ab8" offset="0"/>
   <stop stop-color="#f4679d" offset="1"/>
  </linearGradient>
  <linearGradient id="linearGradient1105" y2="14" gradientUnits="userSpaceOnUse" x2="13" gradientTransform="matrix(.93894 0 0 .93894 .60408 2.107)" y1="7" x1="13">
   <stop stop-color="#fff" offset="0"/>
   <stop stop-color="#fff" stop-opacity=".23529" offset="0"/>
   <stop stop-color="#fff" stop-opacity=".15686" offset="1"/>
   <stop stop-color="#fff" stop-opacity=".39216" offset="1"/>
  </linearGradient>
  <radialGradient id="radialGradient1945" gradientUnits="userSpaceOnUse" cy="-.31844" cx="13.93" gradientTransform="matrix(-2.2942 -.022669 .025292 -2.5597 45.896 -1.2834)" r="9.0362">
   <stop stop-color="#737373" offset="0"/>
   <stop stop-color="#636363" offset=".26238"/>
   <stop stop-color="#4b4b4b" offset=".70495"/>
   <stop stop-color="#3f3f3f" offset="1"/>
  </radialGradient>
 </defs>
 <radialGradient id="c" gradientUnits="userSpaceOnUse" cy="30.857" cx="22.571" gradientTransform="matrix(.81697 0 0 .15670 -6.1433 14.385)" r="15.571">
  <stop offset="0"/>
  <stop stop-opacity="0" offset="1"/>
 </radialGradient>
 <g transform="matrix(1.1422 0 0 1.1422 -.20775 2.0124)">
  <ellipse opacity=".2" rx="12.721" ry="2.44" cy="19.22" cx="12.297" fill="url(#c)"/>
  <path stroke-linejoin="round" d="m15.274 14.851h-5.188l-2.1519 3.993h-4.682l9.6909-18.025h4.804l2.702 17.976h-4.4252zm-3.9924-1.9958h4.5205l-0.688-7.9675-4.186 7.9685" stroke-opacity=".51867" stroke="#000" stroke-linecap="round" stroke-width=".87550" fill="url(#radialGradient1945)"/>
  <path opacity=".2" d="m14.576 2.9473l-1.724 3.2089 1.244-2.0605h6.138l-0.172-1.1484h-5.486zm-1.601 12.416l-1.467 2.483h0.455 5.801l-0.112-1.151h-4.974-0.405l0.702-1.332zm-2.547 4.762l-2.0667 3.412h0.4942l1.8375-3.412h-0.265z" transform="matrix(.87550 0 0 .87550 .18189 -1.7618)" fill="#fff"/>
 </g>
 <g transform="matrix(.77463 0 0 .77463 13.01 13.344)">
  <g fill-rule="evenodd">
   <path d="m12.586-0.22063-7.8898 15.276l-1.9613 5.8257 2.7287 0.62419 12.196 0.20806 1.9613-1.7685 3.8372-8.9465 1.4092-9.2424z" fill="url(#radialGradient12748)"/>
   <path stroke-linejoin="round" d="m3.2079 20.856h12.409l4.3835-7.7148 1.751-10.733-1.148-1.1666-9.508 0.0622-1.5259 1.1185-6.3245 13.735z" stroke-opacity=".5" stroke="#e41b79" stroke-width="1.2909" fill="url(#linearGradient1127)"/>
   <path opacity=".5" stroke-linejoin="round" d="m5.2377 15.714 9.8823 0.04168 5.4451-12.081-0.36788-0.73243h-8.8883l-6.0206 12.827z" fill-opacity=".5" stroke="url(#linearGradient1105)" stroke-width="1.2909" fill="#fff"/>
  </g>
  <path opacity=".2" stroke-linejoin="round" d="m4.5101 16.611v2.9906h10.599" stroke="#fff" stroke-linecap="round" stroke-width="1.2909" fill="none"/>
 </g>
</svg>
